X: 1
T:Lad O'Beirne's
M:4/4
L:1/8
S:Brid Harper
R:R
O:Donegal Fiddle School
K:G
|:DG~G2 DGBG|(3ABc) BG AGEG|DG~G2 DGBd|(3efe) dg eagf|!
dB~B2 dBGB|1cE~E2 GEDB,|DEGA ~B2 eB|dBAc BGGE:|!
2cE~E2 GEDB,|DEGA (3Bcd) eB|dBAc BGGB|!
|:(3ded) Be dGBd|egdg eage|dB ~B2 dBGB|cE ~E2 GE D2|!
Bd ~d2 Bdef| gb (3fga) gedB|DEGA (3Bcd) eG|dBGc BG ~G2:|!
